X:15
T: Jáger Jóska
O: Felsőtárkány (Heves), Özv. Farkas Benedekné - Bugyi Mária (76), 1953.02
M:3/4
L:1/4
Q:"Parlando" 1/4=90
K: F
F/E/F/G/A/F/ | D<C z | 
A/F/A/B/c/c/ | dcz | 
d/B/c/Hd/ z | c/A/F/HC/ z | 
G/F/B/A/ G/F/ | G F> z | 

